src/main/resources/icons/AllIcons/gutter/implementedMethod_dark.svg

<svg xmlns="http://www.w3.org/2000/svg" width="12" height="12" viewBox="0 0 12 12"><rect id="frame" width="12" height="12" fill="none"/><g fill="none" fill-rule="evenodd"><circle cx="4" cy="6" r="4" fill="#62B543" fill-opacity=".7"/><path fill="#AFB1B3" d="M10 9h2l-2.5 3L7 9h2V0h1v9z"/><path fill="#231F20" fill-opacity=".7" d="M4 4.8v2.4h1V8H2v-.8h1V4.8H2V4h3v.8H4z"/></g></svg>

<!-- Copyright 2000-2021 JetBrains s.r.o. Use of this source code is governed by the Apache 2.0 license that can be found in the LICENSE file. -->
<svg xmlns="http://www.w3.org/2000/svg" width="12" height="12" viewBox="0 0 12 12">
  <g fill="none" fill-rule="evenodd">
    <circle cx="4" cy="6" r="4" fill="#62B543" fill-opacity=".7"/>
    <path fill="#AFB1B3" d="M10,9 L12,9 L9.5,12 L7,9 L9,9 L9,0 L10,0 L10,9 Z"/>
    <path fill="#231F20" fill-opacity=".7" d="M4,4.8 L4,7.2 L5,7.2 L5,8 L2,8 L2,7.2 L3,7.2 L3,4.8 L2,4.8 L2,4 L5,4 L5,4.8 L4,4.8 Z"/>
  </g>
</svg>
